svg/transport/airplane_line.svg

<?xml version="1.0" encoding="UTF-8"?>
<svg width="24px" height="24px" viewBox="0 0 24 24" version="1.1" xmlns="http://www.w3.org/2000/svg" xmlns:xlink="http://www.w3.org/1999/xlink">
    <title>airplane_line</title>
    <g id="页面-1" stroke="none" stroke-width="1" fill="none" fill-rule="evenodd">
        <g id="Transport" transform="translate(-48.000000, 0.000000)">
            <g id="airplane_line" transform="translate(48.000000, 0.000000)">
                 <path d="M24,0 L24,24 L0,24 L0,0 L24,0 Z M12.5934901,23.257841 L12.5819402,23.2595131 L12.5108777,23.2950439 L12.4918791,23.2987469 L12.4918791,23.2987469 L12.4767152,23.2950439 L12.4056548,23.2595131 C12.3958229,23.2563662 12.3870493,23.2590235 12.3821421,23.2649074 L12.3780323,23.275831 L12.360941,23.7031097 L12.3658947,23.7234994 L12.3769048,23.7357139 L12.4804777,23.8096931 L12.4953491,23.8136134 L12.4953491,23.8136134 L12.5071152,23.8096931 L12.6106902,23.7357139 L12.6232938,23.7196733 L12.6232938,23.7196733 L12.6266527,23.7031097 L12.609561,23.275831 C12.6075724,23.2657013 12.6010112,23.2592993 12.5934901,23.257841 L12.5934901,23.257841 Z M12.8583906,23.1452862 L12.8445485,23.1473072 L12.6598443,23.2396597 L12.6498822,23.2499052 L12.6498822,23.2499052 L12.6471943,23.2611114 L12.6650943,23.6906389 L12.6699349,23.7034178 L12.6699349,23.7034178 L12.678386,23.7104931 L12.8793402,23.8032389 C12.8914285,23.8068999 12.9022333,23.8029875 12.9078286,23.7952264 L12.9118235,23.7811639 L12.8776777,23.1665331 C12.8752882,23.1545897 12.8674102,23.1470016 12.8583906,23.1452862 L12.8583906,23.1452862 Z M12.1430473,23.1473072 C12.1332178,23.1423925 12.1221763,23.1452606 12.1156365,23.1525954 L12.1099173,23.1665331 L12.0757714,23.7811639 C12.0751323,23.7926639 12.0828099,23.8018602 12.0926481,23.8045676 L12.108256,23.8032389 L12.3092106,23.7104931 L12.3186497,23.7024347 L12.3186497,23.7024347 L12.3225043,23.6906389 L12.340401,23.2611114 L12.337245,23.2485176 L12.337245,23.2485176 L12.3277531,23.2396597 L12.1430473,23.1473072 Z" id="MingCute" fill-rule="nonzero"></path>
                <path d="M19.71,2.83697 C20.4433,2.98362 21.0164,3.55678 21.1631,4.29004 C21.3759,5.35398 21.0914,6.45687 20.3905,7.28515 L17.6387,10.5373 L19.5834,17.668 C19.7015,18.1008 19.5786,18.5636 19.2614,18.8808 L17.9591,20.1831 C17.4846,20.6576 16.6879,20.546 16.362,19.9594 L13.4195,14.6628 L10.5617,17.0442 L10.7724,18.0974 C10.8543,18.5072 10.726,18.9309 10.4305,19.2264 L8.76716,20.8897 C8.2797,21.3772 7.45792,21.2439 7.14961,20.6272 L5.89067,18.1094 L3.3728,16.8504 C2.7562,16.5421 2.62284,15.7204 3.11031,15.2329 L4.77365,13.5695 C5.06918,13.274 5.49286,13.1457 5.90268,13.2277 L6.95582,13.4383 L9.33727,10.5806 L4.04066,7.63801 C3.45409,7.31214 3.34248,6.51543 3.81698,6.04093 L5.11923,4.73868 C5.43642,4.42149 5.89924,4.29858 6.33201,4.41661 L13.4627,6.36135 L16.7149,3.60951 C17.5432,2.90865 18.6461,2.62418 19.71,2.83697 Z M19.2185,4.78159 C18.7842,4.72358 18.3436,4.85127 18.0068,5.13628 L14.3571,8.22451 C14.1031,8.43936 13.7597,8.5154 13.4389,8.4279 L6.22568,6.46066 L6.15925,6.52709 L11.3538,9.41292 C11.9074,9.72049 12.0446,10.4558 11.6392,10.9424 L8.11517,15.1712 C7.87809,15.4557 7.50433,15.5876 7.14119,15.515 L5.90405,15.2676 L5.49577,15.6759 L7.05343,16.4547 C7.26631,16.5611 7.43892,16.7337 7.54536,16.9466 L8.3242,18.5043 L8.73247,18.096 L8.48504,16.8589 C8.41242,16.4957 8.54435,16.122 8.82884,15.8849 L13.0576,12.3609 C13.5442,11.9554 14.2796,12.0927 14.5871,12.6463 L17.473,17.8408 L17.5394,17.7744 L15.5721,10.5611 C15.4846,10.2402 15.5607,9.89686 15.7755,9.64299 L18.8638,5.99327 C19.1488,5.65644 19.2765,5.21586 19.2185,4.78159 Z" id="形状" fill="#09244B"></path>
            </g>
        </g>
    </g>
</svg>

<svg xmlns="http://www.w3.org/2000/svg" width="24" height="24"><g fill="none" fill-rule="evenodd"><path d="M24 0v24H0V0h24ZM12.593 23.258l-.011.002-.071.035-.02.004-.014-.004-.071-.035c-.01-.004-.019-.001-.024.005l-.004.01-.017.428.005.02.01.013.104.074.015.004.012-.004.104-.074.012-.016.004-.017-.017-.427c-.002-.01-.009-.017-.017-.018Zm.265-.113-.013.002-.185.093-.01.01-.003.011.018.43.005.012.008.007.201.093c.012.004.023 0 .029-.008l.004-.014-.034-.614c-.003-.012-.01-.02-.02-.022Zm-.715.002a.023.023 0 0 0-.027.006l-.006.014-.034.614c0 .012.007.02.017.024l.015-.002.201-.093.01-.008.004-.011.017-.43-.003-.012-.01-.01-.184-.092Z"/><path fill="#09244B" d="M19.71 2.837c.733.147 1.306.72 1.453 1.453a3.557 3.557 0 0 1-.773 2.995l-2.751 3.252 1.944 7.131a1.25 1.25 0 0 1-.322 1.213l-1.302 1.302a1.01 1.01 0 0 1-1.597-.224l-2.942-5.296-2.858 2.381.21 1.053a1.25 1.25 0 0 1-.341 1.13L8.767 20.89a1.01 1.01 0 0 1-1.617-.263L5.89 18.11 3.374 16.85a1.01 1.01 0 0 1-.263-1.617l1.664-1.664a1.25 1.25 0 0 1 1.129-.341l1.053.21 2.381-2.857-5.296-2.943a1.01 1.01 0 0 1-.224-1.597l1.302-1.302a1.25 1.25 0 0 1 1.213-.322l7.13 1.944 3.253-2.751a3.557 3.557 0 0 1 2.995-.773Zm-.492 1.945a1.557 1.557 0 0 0-1.211.354l-3.65 3.089a1.01 1.01 0 0 1-.918.203L6.226 6.46l-.067.066 5.195 2.886a1.01 1.01 0 0 1 .285 1.53L8.115 15.17a1.01 1.01 0 0 1-.974.344l-1.237-.247-.408.408 1.557.779a1.1 1.1 0 0 1 .492.492l.78 1.557.407-.408-.247-1.237a1.01 1.01 0 0 1 .344-.974l4.229-3.524a1.01 1.01 0 0 1 1.53.285l2.885 5.195.066-.067-1.967-7.213a1.01 1.01 0 0 1 .204-.918l3.088-3.65c.285-.337.412-.777.354-1.211Z"/></g></svg>
